X:616
T: DA JESUS IN DEN GARTEN GIENG
N: E1958
O: Europa, Mitteleuropa, Deutschland
N: Schluss modulierend
R: geistlich, Fest - Lied, Biblischer Stoff, Passion
M: 4/4
L: 1/4
K: F
c | cdcB | BGF2 | z
FAB | cGAB | c2z
A | Bcdc | BAB2 | z
AGA | Bcc=B | c3

